src/images/deploy-kubernetes.svg

<svg xmlns="http://www.w3.org/2000/svg" width="115" height="114" fill="none" viewBox="0 0 115 114"><rect width="115" height="114" fill="#F96132" rx="10"/><path fill="#fff" fill-rule="evenodd" stroke="#fff" stroke-linecap="round" stroke-linejoin="round" stroke-width="2.17" d="M60.1832 21.3886L85.6734 34.0871C86.022 34.2853 86.3272 34.5504 86.5712 34.8668C86.8151 35.1832 86.9929 35.5446 87.0941 35.9298L92.4308 62.3609C92.5495 63.1606 92.3527 63.9749 91.8812 64.6349L74.9803 85.7386C74.7143 86.037 74.3907 86.2796 74.0285 86.4522C73.6663 86.6247 73.2728 86.7237 72.8714 86.7433L45.0446 86.6306C44.2292 86.5838 43.4618 86.2337 42.8961 85.6504L24.5496 64.3801C24.3103 64.0662 24.1423 63.705 24.0569 63.321C23.9714 62.937 23.9706 62.5393 24.0545 62.155L31.3367 35.3123C31.5852 34.5452 32.1151 33.8982 32.8219 33.4989L57.8367 21.3788C58.208 21.2226 58.6076 21.1429 59.011 21.1446C59.4144 21.1462 59.8133 21.2293 60.1832 21.3886Z" clip-rule="evenodd"/><path fill="#fff" fill-rule="evenodd" d="M60.3466 30.0635L57.7327 30.1713L57.7921 36.7729C55.6329 36.9289 53.5215 37.4789 51.5644 38.3952C48.4258 39.8998 45.2525 42.8061 45.2525 42.8061L39.6832 37.415L37.5297 39.4832L43.0842 45.0556C41.9709 46.7775 41.1888 48.6883 40.7773 50.6918C40.1486 53.9264 40.5644 57.9844 40.5644 57.9844L33.6931 58.5823L33.8169 61.1407L41.0595 60.7731C41.0595 60.7731 42.1882 64.341 44.2426 66.7768C45.7556 68.4823 47.4244 70.0458 49.2278 71.4474L46.8119 77.5443L49.1931 78.4755L51.8713 72.457C53.999 72.9415 56.16 73.2691 58.3367 73.4372C61.6782 73.6137 65.7327 72.5796 65.7327 72.5796L68.5941 78.647L71.1337 77.4659L70.5149 76.1965L68.208 71.4768C70.0855 70.3177 71.7747 68.8834 73.2179 67.2228C74.6512 65.3355 75.8698 63.2974 76.8515 61.1455L83.5644 62.1552L84 59.2587L77.5149 58.2785C77.8281 56.0577 77.7562 53.8002 77.302 51.6033C76.6788 49.3102 75.7145 47.1217 74.4406 45.1095L80.0248 41.0956L78.3664 39.0421L72.8515 42.7472C72.8515 42.7472 69.9852 39.9635 67.0347 38.5471C64.9132 37.619 62.6671 37 60.3664 36.7092L60.3466 30.0635ZM56.5693 40.9829C56.6691 41.0597 56.7461 41.1616 56.7923 41.2781C56.8385 41.3945 56.8521 41.5211 56.8317 41.6445L56.5396 48.599C56.5099 49.2411 56.0446 49.4861 55.4852 49.1528L49.5446 45.5212C48.9951 45.1879 49.0496 44.6635 49.5941 44.3597L55.8713 41.0221C55.9743 40.9563 56.0927 40.9181 56.2151 40.9112C56.3374 40.9044 56.4595 40.9291 56.5693 40.9829ZM61.6931 41.0907L68.2674 43.8304C68.3937 43.857 68.5085 43.9221 68.5956 44.0165C68.6828 44.111 68.7378 44.2301 68.7531 44.3571C68.7684 44.4841 68.7431 44.6127 68.6809 44.7248C68.6186 44.8369 68.5225 44.9268 68.406 44.9821L62.7426 49.1185C62.6542 49.2138 62.5381 49.2796 62.4104 49.307C62.2826 49.3343 62.1495 49.322 62.0291 49.2715C61.9088 49.2211 61.8072 49.135 61.7381 49.0252C61.6691 48.9153 61.6361 48.787 61.6436 48.6578L60.7624 41.7964C60.6832 41.1593 61.0941 40.8408 61.6931 41.0907ZM46.5594 47.9815C46.6837 47.9657 46.8099 47.9834 46.9248 48.0325C47.0398 48.0817 47.1393 48.1605 47.2129 48.2609L52.0198 53.3432C52.4654 53.8333 52.3268 54.3234 51.6981 54.4753L44.906 56.1466C44.2773 56.2985 43.9159 55.9162 44.099 55.3036L46.0792 48.5206C46.1016 48.3958 46.1583 48.2795 46.243 48.1844C46.3277 48.0893 46.4372 48.0191 46.5594 47.9815ZM71.9802 48.599C72.0885 48.6615 72.1783 48.7509 72.2409 48.8583C72.3034 48.9658 72.3364 49.0876 72.3367 49.2116L73.1535 56.2299C73.2278 56.8621 72.8169 57.1806 72.2278 56.916L65.7921 54.0538C65.6659 54.0236 65.5523 53.9555 65.4668 53.8589C65.3813 53.7622 65.3281 53.6416 65.3145 53.5138C65.301 53.386 65.3277 53.2572 65.3911 53.145C65.4544 53.0329 65.5513 52.9429 65.6683 52.8874L71.2674 48.7559C71.362 48.6703 71.4776 48.6108 71.6027 48.5833C71.7277 48.5557 71.8579 48.5612 71.9802 48.599ZM58.7525 53.6176C59.1442 53.6176 59.527 53.7326 59.8527 53.948C60.1783 54.1634 60.4321 54.4696 60.582 54.8278C60.7319 55.1861 60.7711 55.5802 60.6946 55.9605C60.6182 56.3408 60.4297 56.6901 60.1527 56.9642C59.8758 57.2384 59.5229 57.4251 59.1388 57.5008C58.7547 57.5764 58.3566 57.5376 57.9947 57.3892C57.6329 57.2408 57.3236 56.9896 57.106 56.6672C56.8884 56.3448 56.7723 55.9658 56.7723 55.578C56.7703 55.3205 56.8202 55.0652 56.9192 54.827C57.0181 54.5888 57.1641 54.3725 57.3485 54.1909C57.5329 54.0092 57.752 53.8658 57.9931 53.7691C58.2342 53.6723 58.4924 53.6242 58.7525 53.6274V53.6176ZM53.0743 59.4449C53.7129 59.3567 54.0198 59.7586 53.7723 60.3467L51.0693 66.7915C51.0404 66.9163 50.9735 67.0294 50.8777 67.1155C50.782 67.2016 50.6619 67.2566 50.5336 67.2731C50.4053 67.2897 50.275 67.2669 50.1602 67.208C50.0453 67.1491 49.9514 67.0567 49.8911 66.9434L45.5743 61.4935C45.1783 61.0034 45.3862 60.5133 46.0248 60.4202L53.0743 59.4449ZM64.8911 59.4449L72.0248 59.8909C72.6684 59.9301 72.901 60.381 72.5198 60.9152L68.5595 66.6739C68.5083 66.791 68.4217 66.8897 68.3117 66.9561C68.2016 67.0226 68.0734 67.0537 67.9448 67.0451C67.8162 67.0365 67.6934 66.9886 67.5934 66.9081C67.4933 66.8276 67.4209 66.7184 67.3862 66.5954L64.2575 60.4104C63.9703 59.8713 64.2476 59.4155 64.8911 59.4547V59.4449ZM58.9505 61.7876C59.0768 61.7982 59.198 61.8419 59.3015 61.9143C59.4051 61.9866 59.4873 62.085 59.5396 62.1993L63.0347 68.252C63.3565 68.8058 63.0941 69.2714 62.4505 69.2763L55.4555 69.3547C54.8119 69.3547 54.5495 68.9136 54.8664 68.3745L58.3812 62.214C58.4283 62.1023 58.5044 62.005 58.6018 61.9318C58.6992 61.8586 58.8144 61.8123 58.9357 61.7974L58.9505 61.7876Z" clip-rule="evenodd"/><path fill="#F96132" fill-rule="evenodd" d="M60.3466 30.0635L57.7327 30.1713L57.7921 36.7729C55.6329 36.9289 53.5215 37.4789 51.5644 38.3952C48.4258 39.8998 45.2525 42.8061 45.2525 42.8061L39.6832 37.415L37.5297 39.4832L43.0842 45.0556C41.9709 46.7775 41.1888 48.6883 40.7773 50.6918C40.1486 53.9264 40.5644 57.9844 40.5644 57.9844L33.6931 58.5823L33.8169 61.1407L41.0595 60.7731C41.0595 60.7731 42.1882 64.341 44.2426 66.7768C45.7556 68.4823 47.4244 70.0458 49.2278 71.4474L46.8119 77.5443L49.1931 78.4755L51.8713 72.457C53.999 72.9415 56.16 73.2691 58.3367 73.4372C61.6782 73.6137 65.7327 72.5796 65.7327 72.5796L68.5941 78.647L71.1337 77.4659L70.5149 76.1965L68.208 71.4768C70.0855 70.3177 71.7747 68.8834 73.2179 67.2228C74.6512 65.3355 75.8698 63.2974 76.8515 61.1455L83.5644 62.1552L84 59.2587L77.5149 58.2785C77.8281 56.0577 77.7562 53.8002 77.302 51.6033C76.6788 49.3102 75.7145 47.1217 74.4406 45.1095L80.0248 41.0956L78.3664 39.0421L72.8515 42.7472C72.8515 42.7472 69.9852 39.9635 67.0347 38.5471C64.9132 37.619 62.6671 37 60.3664 36.7092L60.3466 30.0635ZM56.5693 40.9829C56.6691 41.0597 56.7461 41.1616 56.7923 41.2781C56.8385 41.3945 56.8521 41.5211 56.8317 41.6445L56.5396 48.599C56.5099 49.2411 56.0446 49.4861 55.4852 49.1528L49.5446 45.5212C48.9951 45.1879 49.0495 44.6635 49.5941 44.3597L55.8713 41.0221C55.9743 40.9563 56.0927 40.9181 56.2151 40.9112C56.3374 40.9044 56.4595 40.9291 56.5693 40.9829ZM61.6931 41.0907L68.2674 43.8304C68.3937 43.857 68.5085 43.9221 68.5956 44.0165C68.6828 44.111 68.7378 44.2301 68.7531 44.3571C68.7684 44.4841 68.7431 44.6127 68.6809 44.7248C68.6186 44.8369 68.5225 44.9268 68.406 44.9821L62.7426 49.1185C62.6542 49.2138 62.5381 49.2796 62.4104 49.307C62.2826 49.3343 62.1495 49.322 62.0291 49.2715C61.9088 49.2211 61.8072 49.135 61.7381 49.0252C61.6691 48.9153 61.6361 48.787 61.6436 48.6578L60.7624 41.7964C60.6832 41.1593 61.0941 40.8408 61.6931 41.0907ZM46.5594 47.9815C46.6837 47.9657 46.8099 47.9834 46.9248 48.0325C47.0398 48.0817 47.1393 48.1605 47.2129 48.2609L52.0198 53.3432C52.4654 53.8333 52.3268 54.3234 51.6981 54.4753L44.906 56.1466C44.2773 56.2985 43.9159 55.9162 44.099 55.3036L46.0792 48.5206C46.1016 48.3958 46.1583 48.2795 46.243 48.1844C46.3277 48.0893 46.4372 48.0191 46.5594 47.9815ZM71.9802 48.599C72.0885 48.6615 72.1783 48.7509 72.2409 48.8583C72.3034 48.9658 72.3364 49.0876 72.3367 49.2116L73.1535 56.2299C73.2278 56.8621 72.8169 57.1806 72.2278 56.916L65.7921 54.0538C65.6659 54.0236 65.5523 53.9555 65.4668 53.8589C65.3813 53.7622 65.3281 53.6416 65.3145 53.5138C65.301 53.386 65.3277 53.2572 65.3911 53.145C65.4544 53.0329 65.5513 52.9429 65.6683 52.8874L71.2674 48.7559C71.3619 48.6703 71.4776 48.6108 71.6027 48.5833C71.7277 48.5557 71.8579 48.5612 71.9802 48.599ZM58.7525 53.6176C59.1442 53.6176 59.527 53.7326 59.8527 53.948C60.1783 54.1634 60.4321 54.4696 60.582 54.8278C60.7318 55.1861 60.7711 55.5802 60.6946 55.9605C60.6182 56.3408 60.4297 56.6901 60.1527 56.9642C59.8758 57.2384 59.5229 57.4251 59.1388 57.5008C58.7547 57.5764 58.3566 57.5376 57.9947 57.3892C57.6329 57.2408 57.3236 56.9896 57.106 56.6672C56.8884 56.3448 56.7723 55.9658 56.7723 55.578C56.7703 55.3205 56.8202 55.0652 56.9192 54.827C57.0181 54.5888 57.1641 54.3725 57.3485 54.1909C57.5329 54.0092 57.752 53.8658 57.9931 53.7691C58.2342 53.6723 58.4924 53.6242 58.7525 53.6274V53.6176ZM53.0743 59.4449C53.7129 59.3567 54.0198 59.7586 53.7723 60.3467L51.0693 66.7915C51.0404 66.9163 50.9735 67.0294 50.8777 67.1155C50.782 67.2016 50.6619 67.2566 50.5336 67.2731C50.4053 67.2897 50.275 67.2669 50.1602 67.208C50.0453 67.1491 49.9514 67.0567 49.8911 66.9434L45.5743 61.4935C45.1783 61.0034 45.3862 60.5133 46.0248 60.4202L53.0743 59.4449ZM64.8911 59.4449L72.0248 59.8909C72.6684 59.9301 72.901 60.381 72.5198 60.9152L68.5595 66.6739C68.5083 66.791 68.4217 66.8897 68.3117 66.9561C68.2016 67.0226 68.0734 67.0537 67.9448 67.0451C67.8162 67.0365 67.6934 66.9886 67.5934 66.9081C67.4933 66.8276 67.4209 66.7184 67.3862 66.5954L64.2575 60.4104C63.9703 59.8713 64.2476 59.4155 64.8911 59.4547V59.4449ZM58.9505 61.7876C59.0768 61.7982 59.198 61.8419 59.3015 61.9143C59.4051 61.9866 59.4873 62.085 59.5396 62.1993L63.0347 68.252C63.3565 68.8058 63.0941 69.2714 62.4505 69.2763L55.4555 69.3547C54.8119 69.3547 54.5495 68.9136 54.8664 68.3745L58.3812 62.214C58.4283 62.1023 58.5044 62.0049 58.6018 61.9318C58.6992 61.8586 58.8144 61.8122 58.9357 61.7974L58.9505 61.7876Z" clip-rule="evenodd"/><path fill="#F96132" fill-rule="evenodd" stroke="#F96132" stroke-linecap="round" stroke-linejoin="round" stroke-width="2.17" d="M58.0299 31.6465C58.0405 31.4553 58.1075 31.2713 58.2225 31.1174C58.3376 30.9635 58.4957 30.8462 58.6773 30.7802C58.8589 30.7143 59.056 30.7024 59.2443 30.7461C59.4327 30.7898 59.604 30.8871 59.737 31.0261C59.8701 31.1651 59.9591 31.3396 59.9931 31.5282C60.0271 31.7167 60.0046 31.9109 59.9283 32.0869C59.852 32.2629 59.7254 32.4129 59.5639 32.5184C59.4025 32.6239 59.2134 32.6803 59.0199 32.6806C58.7503 32.6729 58.4948 32.5598 58.3092 32.366C58.1236 32.1722 58.0232 31.9135 58.0299 31.6465Z" clip-rule="evenodd"/><path fill="#F96132" fill-rule="evenodd" stroke="#F96132" stroke-linecap="round" stroke-linejoin="round" stroke-width="2.17" d="M77.0048 40.9094C77.0155 40.7182 77.0825 40.5343 77.1975 40.3803C77.3126 40.2264 77.4707 40.1092 77.6523 40.0432C77.8339 39.9772 78.031 39.9653 78.2193 40.009C78.4077 40.0527 78.5789 40.15 78.712 40.289C78.8451 40.428 78.9341 40.6026 78.9681 40.7911C79.0021 40.9796 78.9796 41.1739 78.9033 41.3499C78.827 41.5258 78.7003 41.6759 78.5389 41.7814C78.3775 41.8869 78.1884 41.9433 77.9949 41.9435C77.7257 41.9346 77.4709 41.8211 77.2856 41.6275C77.1003 41.434 76.9995 41.176 77.0048 40.9094Z" clip-rule="evenodd"/><path fill="#F96132" fill-rule="evenodd" stroke="#F96132" stroke-linecap="round" stroke-linejoin="round" stroke-width="2.17" d="M81.2921 60.5232C81.3027 60.332 81.3697 60.1481 81.4847 59.9941C81.5998 59.8402 81.7579 59.723 81.9395 59.657C82.1211 59.591 82.3182 59.5791 82.5066 59.6228C82.6949 59.6665 82.8662 59.7638 82.9993 59.9028C83.1323 60.0418 83.2214 60.2163 83.2554 60.4049C83.2894 60.5934 83.2668 60.7876 83.1906 60.9636C83.1143 61.1396 82.9876 61.2896 82.8262 61.3951C82.6647 61.5006 82.4756 61.557 82.2822 61.5573C82.0125 61.5496 81.757 61.4365 81.5714 61.2427C81.3858 61.0489 81.2854 60.7902 81.2921 60.5232Z" clip-rule="evenodd"/><path fill="#F96132" fill-rule="evenodd" stroke="#F96132" stroke-linecap="round" stroke-linejoin="round" stroke-width="2.17" d="M68.1287 76.5347C68.1394 76.3435 68.2064 76.1595 68.3214 76.0056C68.4365 75.8516 68.5945 75.7344 68.7761 75.6684C68.9577 75.6024 69.1549 75.5906 69.3432 75.6342C69.5315 75.6779 69.7028 75.7753 69.8359 75.9143C69.969 76.0533 70.058 76.2278 70.092 76.4164C70.126 76.6049 70.1035 76.7991 70.0272 76.9751C69.9509 77.1511 69.8242 77.3011 69.6628 77.4066C69.5014 77.5122 69.3123 77.5685 69.1188 77.5688C68.8492 77.5611 68.5936 77.448 68.4081 77.2542C68.2225 77.0604 68.1221 76.8017 68.1287 76.5347Z" clip-rule="evenodd"/><path fill="#F96132" fill-rule="evenodd" stroke="#F96132" stroke-linecap="round" stroke-linejoin="round" stroke-width="2.17" d="M47.6534 76.4121C47.664 76.2209 47.731 76.037 47.8461 75.883C47.9611 75.7291 48.1192 75.6119 48.3008 75.5459C48.4824 75.4799 48.6796 75.468 48.8679 75.5117C49.0562 75.5554 49.2275 75.6527 49.3606 75.7917C49.4937 75.9307 49.5827 76.1053 49.6167 76.2938C49.6507 76.4823 49.6282 76.6766 49.5519 76.8526C49.4756 77.0285 49.3489 77.1786 49.1875 77.2841C49.026 77.3896 48.8369 77.446 48.6435 77.4463C48.3739 77.4386 48.1183 77.3254 47.9328 77.1316C47.7472 76.9378 47.6467 76.6791 47.6534 76.4121Z" clip-rule="evenodd"/><path fill="#F96132" fill-rule="evenodd" stroke="#F96132" stroke-linecap="round" stroke-linejoin="round" stroke-width="2.17" d="M34.5197 59.7341C34.5294 59.5427 34.5956 59.3582 34.7101 59.2036C34.8246 59.049 34.9824 58.931 35.164 58.8643C35.3455 58.7975 35.5429 58.785 35.7316 58.8282C35.9202 58.8713 36.092 58.9683 36.2255 59.1072C36.3591 59.246 36.4486 59.4206 36.483 59.6093C36.5173 59.7979 36.4951 59.9924 36.4189 60.1687C36.3427 60.345 36.216 60.4953 36.0544 60.601C35.8928 60.7067 35.7035 60.7631 35.5098 60.7634C35.2411 60.7557 34.9863 60.6432 34.8009 60.4505C34.6154 60.2577 34.5144 60.0003 34.5197 59.7341Z" clip-rule="evenodd"/><path fill="#F96132" fill-rule="evenodd" stroke="#F96132" stroke-linecap="round" stroke-linejoin="round" stroke-width="2.17" d="M38.7227 39.5764C38.7334 39.3852 38.8004 39.2013 38.9154 39.0473C39.0305 38.8934 39.1886 38.7762 39.3701 38.7102C39.5517 38.6442 39.7489 38.6323 39.9372 38.676C40.1255 38.7197 40.2968 38.817 40.4299 38.956C40.563 39.095 40.652 39.2696 40.686 39.4581C40.72 39.6466 40.6975 39.8409 40.6212 40.0168C40.5449 40.1928 40.4183 40.3429 40.2568 40.4484C40.0954 40.5539 39.9063 40.6103 39.7128 40.6105C39.4432 40.6029 39.1876 40.4897 39.0021 40.2959C38.8165 40.1021 38.7161 39.8434 38.7227 39.5764Z" clip-rule="evenodd"/></svg>

<svg fill="none" viewBox="0 0 115 114"><rect width="115" height="114" fill="#F96132" rx="10"/><path fill="#fff" fill-rule="evenodd" stroke="#fff" stroke-linecap="round" stroke-linejoin="round" stroke-width="2.17" d="M60.183 21.389l25.49 12.698a3.001 3.001 0 011.421 1.843l5.337 26.43c.118.8-.078 1.615-.55 2.275l-16.9 21.104a3.008 3.008 0 01-2.11 1.004l-27.826-.112a3.252 3.252 0 01-2.149-.98L24.55 64.38a2.721 2.721 0 01-.495-2.226l7.282-26.843a3.227 3.227 0 011.485-1.813l25.015-12.12a2.996 2.996 0 012.346.01z" clip-rule="evenodd"/><path fill="#fff" fill-rule="evenodd" d="M60.347 30.064l-2.614.107.06 6.602a17.71 17.71 0 00-6.229 1.622c-3.138 1.505-6.312 4.411-6.312 4.411l-5.569-5.391-2.153 2.068 5.554 5.573a16.491 16.491 0 00-2.307 5.636c-.628 3.234-.213 7.292-.213 7.292l-6.87.598.123 2.559 7.242-.368s1.13 3.568 3.184 6.004a37.088 37.088 0 004.985 4.67l-2.416 6.097 2.381.931 2.678-6.018a44.58 44.58 0 006.466.98c3.341.177 7.396-.857 7.396-.857l2.861 6.067 2.54-1.181-.62-1.27-2.306-4.72a21.83 21.83 0 005.01-4.253 32.029 32.029 0 003.633-6.078l6.713 1.01L84 59.26l-6.485-.98a19.524 19.524 0 00-.213-6.676 23.817 23.817 0 00-2.861-6.494l5.584-4.013-1.659-2.054-5.514 3.705s-2.867-2.783-5.817-4.2a24.215 24.215 0 00-6.669-1.838l-.02-6.646zm-3.778 10.919a.697.697 0 01.263.662l-.292 6.954c-.03.642-.495.887-1.055.554l-5.94-3.632c-.55-.333-.495-.858.05-1.161l6.276-3.338a.713.713 0 01.698-.04zm5.124.108l6.574 2.74a.62.62 0 01.486.526.608.608 0 01-.347.625l-5.663 4.136a.635.635 0 01-.714.154.633.633 0 01-.385-.614l-.882-6.862c-.079-.637.332-.955.931-.705zM46.56 47.98a.704.704 0 01.654.28l4.807 5.082c.445.49.307.98-.322 1.132l-6.792 1.672c-.629.151-.99-.23-.807-.843l1.98-6.783a.688.688 0 01.48-.54zm25.421.618a.715.715 0 01.357.613l.816 7.018c.075.632-.336.95-.925.686l-6.436-2.862a.63.63 0 01-.478-.54.617.617 0 01.354-.627l5.6-4.131a.735.735 0 01.712-.157zm-13.228 5.019c.392 0 .775.115 1.1.33.326.215.58.522.73.88a1.941 1.941 0 01-.43 2.136 1.999 1.999 0 01-2.158.425 1.976 1.976 0 01-.888-.722 1.946 1.946 0 01-.334-1.089 1.918 1.918 0 01.577-1.387 1.955 1.955 0 011.404-.564v-.01zm-5.678 5.827c.639-.088.946.314.698.902L51.07 66.79a.626.626 0 01-.535.482.639.639 0 01-.643-.33l-4.317-5.45c-.396-.49-.188-.98.45-1.073l7.05-.975zm11.817 0l7.134.446c.643.04.876.49.495 1.024l-3.96 5.759a.62.62 0 01-.615.371.627.627 0 01-.559-.45l-3.129-6.185c-.287-.539-.01-.994.634-.955v-.01zm-5.94 2.343a.717.717 0 01.589.411l3.495 6.053c.322.554.06 1.02-.584 1.024l-6.995.079c-.644 0-.907-.441-.59-.98l3.515-6.161a.687.687 0 01.555-.417l.014-.01z" clip-rule="evenodd"/><path fill="#F96132" fill-rule="evenodd" d="M60.347 30.064l-2.614.107.06 6.602a17.71 17.71 0 00-6.229 1.622c-3.138 1.505-6.312 4.411-6.312 4.411l-5.569-5.391-2.153 2.068 5.554 5.573a16.491 16.491 0 00-2.307 5.636c-.628 3.234-.213 7.292-.213 7.292l-6.87.598.123 2.559 7.242-.368s1.13 3.568 3.184 6.004a37.088 37.088 0 004.985 4.67l-2.416 6.097 2.381.931 2.678-6.018a44.58 44.58 0 006.466.98c3.341.177 7.396-.857 7.396-.857l2.861 6.067 2.54-1.181-.62-1.27-2.306-4.72a21.83 21.83 0 005.01-4.253 32.029 32.029 0 003.633-6.078l6.713 1.01L84 59.26l-6.485-.98a19.524 19.524 0 00-.213-6.676 23.817 23.817 0 00-2.861-6.494l5.584-4.013-1.659-2.054-5.514 3.705s-2.867-2.783-5.817-4.2a24.215 24.215 0 00-6.669-1.838l-.02-6.646zm-3.778 10.919a.697.697 0 01.263.662l-.292 6.954c-.03.642-.495.887-1.055.554l-5.94-3.632c-.55-.333-.495-.858.05-1.161l6.276-3.338a.713.713 0 01.698-.04zm5.124.108l6.574 2.74a.62.62 0 01.486.526.608.608 0 01-.347.625l-5.663 4.136a.635.635 0 01-.714.154.633.633 0 01-.385-.614l-.882-6.862c-.079-.637.332-.955.931-.705zM46.56 47.98a.704.704 0 01.654.28l4.807 5.082c.445.49.307.98-.322 1.132l-6.792 1.672c-.629.151-.99-.23-.807-.843l1.98-6.783a.688.688 0 01.48-.54zm25.421.618a.715.715 0 01.357.613l.816 7.018c.075.632-.336.95-.925.686l-6.436-2.862a.63.63 0 01-.478-.54.617.617 0 01.354-.627l5.6-4.131a.734.734 0 01.712-.157zm-13.228 5.019c.392 0 .775.115 1.1.33.326.215.58.522.73.88a1.942 1.942 0 01-.43 2.136 1.999 1.999 0 01-2.158.425 1.976 1.976 0 01-.888-.722 1.946 1.946 0 01-.334-1.089 1.918 1.918 0 01.577-1.387 1.955 1.955 0 011.404-.564v-.01zm-5.678 5.827c.639-.088.946.314.698.902L51.07 66.79a.626.626 0 01-.535.482.639.639 0 01-.643-.33l-4.317-5.45c-.396-.49-.188-.98.45-1.073l7.05-.975zm11.817 0l7.134.446c.643.04.876.49.495 1.024l-3.96 5.759a.62.62 0 01-.615.371.627.627 0 01-.559-.45l-3.129-6.185c-.287-.539-.01-.994.634-.955v-.01zm-5.94 2.343a.717.717 0 01.589.411l3.495 6.053c.322.554.06 1.02-.584 1.024l-6.995.079c-.644 0-.907-.441-.59-.98l3.515-6.161a.686.686 0 01.555-.417l.014-.01z" clip-rule="evenodd"/><path fill="#F96132" fill-rule="evenodd" stroke="#F96132" stroke-linecap="round" stroke-linejoin="round" stroke-width="2.17" d="M58.03 31.646a.974.974 0 01.647-.866 1 1 0 011.06.246.976.976 0 01-.717 1.655 1.024 1.024 0 01-.71-.315 1.004 1.004 0 01-.28-.72zm18.975 9.263a.975.975 0 01.647-.866 1 1 0 011.06.246.977.977 0 01-.717 1.654 1.029 1.029 0 01-.71-.316 1.01 1.01 0 01-.28-.718zm4.287 19.614a.974.974 0 01.647-.866 1 1 0 011.06.246.977.977 0 01.192 1.06.998.998 0 01-.908.594 1.025 1.025 0 01-.712-.314 1.004 1.004 0 01-.279-.72zM68.13 76.535a.975.975 0 01.647-.867 1 1 0 011.06.246.976.976 0 01-.717 1.655 1.024 1.024 0 01-.71-.315 1.004 1.004 0 01-.28-.72zm-20.476-.123a.974.974 0 01.193-.529.99.99 0 011.022-.371.977.977 0 01-.224 1.935 1.024 1.024 0 01-.711-.315 1.004 1.004 0 01-.28-.72zM34.52 59.734a.974.974 0 01.644-.87.999.999 0 011.061.243.977.977 0 01-.715 1.656 1.025 1.025 0 01-.71-.313 1.004 1.004 0 01-.28-.716zm4.203-20.158a.975.975 0 01.647-.866 1 1 0 011.06.246.977.977 0 01-.717 1.654 1.024 1.024 0 01-.71-.314 1.004 1.004 0 01-.28-.72z" clip-rule="evenodd"/></svg>
